_includes/icons/mastodon.svg

<svg xmlns="http://www.w3.org/2000/svg" width="24" height="24" viewBox="0 0 32 32">
<path d="M 15.9375 4.03125 C 12.917 4.0435 9.9179219 4.4269844 8.3574219 5.1464844 C 8.3574219 5.1464844 5 6.6748594 5 11.880859 C 5 18.077859 4.9955 25.860234 10.5625 27.365234 C 12.6945 27.938234 14.527953 28.061562 16.001953 27.976562 C 18.676953 27.825562 20 27.005859 20 27.005859 L 19.910156 25.029297 C 19.910156 25.029297 18.176297 25.640313 16.029297 25.570312 C 13.902297 25.495313 11.6615 25.335688 11.3125 22.679688 C 11.2805 22.432688 11.264625 22.182594 11.265625 21.933594 C 15.772625 23.052594 19.615828 22.420969 20.673828 22.292969 C 23.627828 21.933969 26.199344 20.081672 26.527344 18.388672 C 27.041344 15.720672 26.998047 11.880859 26.998047 11.880859 C 26.998047 6.6748594 23.646484 5.1464844 23.646484 5.1464844 C 22.000984 4.3779844 18.958 4.019 15.9375 4.03125 z M 12.705078 8.0019531 C 13.739953 8.0297031 14.762578 8.4927031 15.392578 9.4707031 L 16.001953 10.505859 L 16.609375 9.4707031 C 17.874375 7.5037031 20.709594 7.6264375 22.058594 9.1484375 C 23.302594 10.596438 23.025391 11.531 23.025391 18 L 23.025391 18.001953 L 20.578125 18.001953 L 20.578125 12.373047 C 20.578125 9.7380469 17.21875 9.6362812 17.21875 12.738281 L 17.21875 16 L 14.787109 16 L 14.787109 12.738281 C 14.787109 9.6362812 11.429688 9.7360938 11.429688 12.371094 L 11.429688 18 L 8.9765625 18 C 8.9765625 11.526 8.7043594 10.585438 9.9433594 9.1484375 C 10.622859 8.3824375 11.670203 7.9742031 12.705078 8.0019531 z"></path>
</svg>

<svg xmlns="http://www.w3.org/2000/svg" width="24" height="24" viewBox="0 0 32 32">
  <path d="M15.938 4.031c-3.021.013-6.02.396-7.58 1.115 0 0-3.358 1.529-3.358 6.735 0 6.197-.005 13.98 5.563 15.484 2.131.573 3.965.697 5.439.612 2.675-.151 3.998-.971 3.998-.971l-.09-1.977s-1.734.611-3.88.541c-2.128-.075-4.369-.234-4.718-2.89a5.64 5.64 0 0 1-.046-.746c4.507 1.119 8.35.487 9.408.359 2.954-.359 5.525-2.211 5.853-3.904.514-2.668.471-6.508.471-6.508 0-5.206-3.352-6.735-3.352-6.735-1.645-.768-4.688-1.127-7.709-1.115zm-3.233 3.971c1.035.028 2.058.49 2.688 1.469l.609 1.035.607-1.035c1.265-1.967 4.1-1.845 5.45-.323 1.244 1.448.966 2.383.966 8.852v.002h-2.447v-5.629c0-2.635-3.36-2.737-3.36.365V16h-2.43v-3.262c0-3.102-3.358-3.002-3.358-.367V18H8.977c0-6.474-.273-7.415.966-8.852.68-.766 1.727-1.174 2.762-1.146z"/>
</svg>
